svg/color/lz.svg

<?xml version="1.0" encoding="UTF-8" ?>
<!DOCTYPE svg PUBLIC "-//W3C//DTD SVG 1.1//EN" "http://www.w3.org/Graphics/SVG/1.1/DTD/svg11.dtd">
<svg width="250pt" height="250pt" viewBox="0 0 250 250" version="1.1" xmlns="http://www.w3.org/2000/svg">
<g id="#ffffffff">
<path fill="#ffffff" opacity="1.00" d=" M 0.00 0.00 L 250.00 0.00 L 250.00 250.00 L 0.00 250.00 L 0.00 0.00 M 109.56 1.55 C 90.41 3.67 71.89 10.86 55.86 21.48 L 55.63 21.39 C 48.57 26.70 41.33 31.93 35.51 38.64 C 31.60 42.18 28.15 46.33 25.34 50.80 L 24.95 50.70 C 20.78 56.65 16.89 62.81 13.64 69.32 C 10.17 76.56 6.88 84.04 5.15 91.91 C 2.25 101.24 0.77 111.14 1.00 120.92 C 0.77 130.61 0.77 140.37 3.03 149.87 C 6.59 167.82 14.38 184.90 25.28 199.58 C 43.85 224.65 72.27 242.08 102.96 247.55 C 106.72 248.13 110.51 248.94 114.33 248.72 C 117.69 250.28 121.43 248.63 124.96 248.96 C 133.83 249.49 142.79 248.68 151.43 246.58 C 160.84 244.86 169.81 241.35 178.50 237.42 C 186.61 233.47 194.45 228.86 201.47 223.17 C 207.80 218.56 213.30 212.92 218.63 207.21 C 225.73 198.89 231.87 189.78 236.74 179.98 C 243.04 166.93 247.15 152.81 248.73 138.39 C 249.01 135.62 249.54 132.80 248.99 130.03 C 248.82 122.20 249.49 114.31 248.19 106.54 C 246.66 97.52 244.50 88.56 241.04 80.08 C 230.59 52.50 209.77 29.06 183.72 15.26 C 167.78 6.76 149.98 1.56 131.89 0.82 C 124.45 1.41 116.97 0.33 109.56 1.55 Z" />
<path fill="#ffffff" opacity="1.00" d=" M 75.48 34.00 C 92.95 24.67 113.06 20.27 132.83 21.84 C 161.04 23.96 187.98 38.27 205.56 60.43 C 216.90 74.35 224.07 91.34 227.15 108.97 C 230.07 128.88 227.46 149.66 219.01 167.97 C 214.44 177.90 208.42 187.19 200.93 195.17 C 196.47 199.89 191.78 204.41 186.51 208.21 C 179.51 213.45 171.83 217.76 163.74 221.09 C 154.93 224.78 145.55 226.97 136.08 228.09 C 122.59 229.52 108.85 228.38 95.82 224.61 C 67.83 216.58 43.79 196.13 31.29 169.85 C 25.70 157.84 22.09 144.84 21.36 131.59 C 21.07 123.07 21.17 114.46 22.93 106.09 C 24.64 96.77 27.69 87.70 31.91 79.21 C 35.28 72.32 39.51 65.87 44.31 59.89 C 48.44 54.85 53.01 50.17 57.99 45.98 C 63.38 41.39 69.28 37.41 75.48 34.00 M 80.89 62.49 C 74.90 68.41 68.86 74.28 63.05 80.37 C 55.69 87.75 48.05 94.89 41.04 102.61 C 61.48 122.80 81.68 143.24 102.01 163.55 C 109.68 156.25 117.12 148.70 124.51 141.12 C 111.77 128.27 98.99 115.47 86.19 102.69 C 86.40 102.31 86.82 101.55 87.03 101.17 C 93.64 94.98 99.90 88.42 106.30 82.01 C 112.43 75.99 118.46 69.86 124.53 63.79 C 117.22 56.11 109.58 48.75 102.09 41.26 C 94.97 48.28 87.88 55.34 80.89 62.49 M 147.35 86.87 C 140.01 94.33 132.54 101.66 125.18 109.09 C 137.75 122.24 150.94 134.79 163.57 147.88 C 162.67 148.83 161.79 149.79 160.90 150.75 C 155.49 156.01 150.21 161.39 144.92 166.77 C 138.31 173.40 131.60 179.92 125.10 186.66 C 132.71 194.08 139.99 201.83 147.78 209.04 C 154.99 201.71 162.34 194.53 169.48 187.15 C 174.92 181.82 180.47 176.56 185.52 170.86 L 185.81 171.00 C 193.36 163.22 201.14 155.68 208.71 147.92 C 189.56 128.51 170.14 109.38 150.96 90.01 C 149.83 88.88 148.60 87.85 147.35 86.87 Z" />
</g>
<g id="#8eca25ff">
<path fill="#8eca25" opacity="1.00" d=" M 109.56 1.55 C 116.97 0.33 124.45 1.41 131.89 0.82 C 149.98 1.56 167.78 6.76 183.72 15.26 C 209.77 29.06 230.59 52.50 241.04 80.08 C 244.50 88.56 246.66 97.52 248.19 106.54 C 249.49 114.31 248.82 122.20 248.99 130.03 C 244.24 125.09 238.85 120.82 233.73 116.29 C 231.33 114.04 229.53 111.24 227.15 108.97 C 224.07 91.34 216.90 74.35 205.56 60.43 C 187.98 38.27 161.04 23.96 132.83 21.84 C 133.32 21.52 134.31 20.87 134.80 20.54 C 132.20 19.97 129.40 19.52 127.39 17.62 C 121.57 12.13 115.26 7.18 109.56 1.55 Z" />
</g>
<g id="#7dbe27ff">
<path fill="#7dbe27" opacity="1.00" d=" M 55.86 21.48 C 71.89 10.86 90.41 3.67 109.56 1.55 C 115.26 7.18 121.57 12.13 127.39 17.62 C 129.40 19.52 132.20 19.97 134.80 20.54 C 134.31 20.87 133.32 21.52 132.83 21.84 C 113.06 20.27 92.95 24.67 75.48 34.00 C 69.89 32.81 66.88 27.62 62.38 24.65 C 60.41 23.23 58.15 22.28 55.86 21.48 Z" />
</g>
<g id="#6eb429ff">
<path fill="#6eb429" opacity="1.00" d=" M 55.63 21.39 L 55.86 21.48 C 58.15 22.28 60.41 23.23 62.38 24.65 C 66.88 27.62 69.89 32.81 75.48 34.00 C 69.28 37.41 63.38 41.39 57.99 45.98 C 55.68 43.64 53.45 40.77 50.03 40.12 C 45.26 39.12 40.37 38.79 35.51 38.64 C 41.33 31.93 48.57 26.70 55.63 21.39 Z" />
<path fill="#6eb429" opacity="1.00" d=" M 147.35 86.87 C 148.60 87.85 149.83 88.88 150.96 90.01 C 170.14 109.38 189.56 128.51 208.71 147.92 C 201.14 155.68 193.36 163.22 185.81 171.00 L 185.52 170.86 C 181.82 169.35 178.99 166.54 176.16 163.83 C 170.91 159.66 166.39 154.64 160.90 150.75 C 161.79 149.79 162.67 148.83 163.57 147.88 C 150.94 134.79 137.75 122.24 125.18 109.09 C 132.54 101.66 140.01 94.33 147.35 86.87 Z" />
</g>
<g id="#66ae2aff">
<path fill="#66ae2a" opacity="1.00" d=" M 25.34 50.80 C 28.15 46.33 31.60 42.18 35.51 38.64 C 40.37 38.79 45.26 39.12 50.03 40.12 C 53.45 40.77 55.68 43.64 57.99 45.98 C 53.01 50.17 48.44 54.85 44.31 59.89 C 40.44 58.67 38.08 55.32 35.11 52.83 C 32.03 51.55 28.51 51.88 25.34 50.80 Z" />
</g>
<g id="#72b629ff">
<path fill="#72b629" opacity="1.00" d=" M 80.89 62.49 C 87.88 55.34 94.97 48.28 102.09 41.26 C 109.58 48.75 117.22 56.11 124.53 63.79 C 118.46 69.86 112.43 75.99 106.30 82.01 C 98.87 77.15 92.89 70.44 85.90 65.01 C 84.31 64.02 82.58 63.29 80.89 62.49 Z" />
</g>
<g id="#5ea92bff">
<path fill="#5ea92b" opacity="1.00" d=" M 13.64 69.32 C 16.89 62.81 20.78 56.65 24.95 50.70 L 25.34 50.80 C 28.51 51.88 32.03 51.55 35.11 52.83 C 38.08 55.32 40.44 58.67 44.31 59.89 C 39.51 65.87 35.28 72.32 31.91 79.21 C 28.29 77.24 25.19 74.52 22.04 71.89 C 19.40 70.62 16.41 70.26 13.64 69.32 Z" />
</g>
<g id="#67af2aff">
<path fill="#67af2a" opacity="1.00" d=" M 63.05 80.37 C 68.86 74.28 74.90 68.41 80.89 62.49 C 82.58 63.29 84.31 64.02 85.90 65.01 C 92.89 70.44 98.87 77.15 106.30 82.01 C 99.90 88.42 93.64 94.98 87.03 101.17 C 79.11 94.16 71.19 87.14 63.05 80.37 Z" />
</g>
<g id="#54a22dff">
<path fill="#54a22d" opacity="1.00" d=" M 5.15 91.91 C 6.88 84.04 10.17 76.56 13.64 69.32 C 16.41 70.26 19.40 70.62 22.04 71.89 C 25.19 74.52 28.29 77.24 31.91 79.21 C 27.69 87.70 24.64 96.77 22.93 106.09 C 19.83 101.53 15.01 98.65 11.13 94.83 C 9.57 93.01 7.13 93.30 5.00 93.40 C 5.03 93.03 5.11 92.28 5.15 91.91 Z" />
</g>
<g id="#5aa62cff">
<path fill="#5aa62c" opacity="1.00" d=" M 41.04 102.61 C 48.05 94.89 55.69 87.75 63.05 80.37 C 71.19 87.14 79.11 94.16 87.03 101.17 C 86.82 101.55 86.40 102.31 86.19 102.69 C 98.99 115.47 111.77 128.27 124.51 141.12 C 117.12 148.70 109.68 156.25 102.01 163.55 C 81.68 143.24 61.48 122.80 41.04 102.61 Z" />
</g>
<g id="#4b9c2eff">
<path fill="#4b9c2e" opacity="1.00" d=" M 1.00 120.92 C 0.77 111.14 2.25 101.24 5.15 91.91 C 5.11 92.28 5.03 93.03 5.00 93.40 C 7.13 93.30 9.57 93.01 11.13 94.83 C 15.01 98.65 19.83 101.53 22.93 106.09 C 21.17 114.46 21.07 123.07 21.36 131.59 C 20.73 132.60 20.10 133.62 19.47 134.64 C 13.57 130.30 8.67 124.77 2.76 120.44 C 2.32 120.56 1.44 120.80 1.00 120.92 Z" />
</g>
<g id="#7bbd27ff">
<path fill="#7bbd27" opacity="1.00" d=" M 227.15 108.97 C 229.53 111.24 231.33 114.04 233.73 116.29 C 238.85 120.82 244.24 125.09 248.99 130.03 C 249.54 132.80 249.01 135.62 248.73 138.39 C 247.15 152.81 243.04 166.93 236.74 179.98 C 233.22 177.68 230.29 174.66 227.18 171.87 C 225.09 169.80 221.99 170.02 219.31 169.53 C 219.24 169.14 219.09 168.36 219.01 167.97 C 227.46 149.66 230.07 128.88 227.15 108.97 Z" />
</g>
<g id="#41952fff">
<path fill="#41952f" opacity="1.00" d=" M 1.00 120.92 C 1.44 120.80 2.32 120.56 2.76 120.44 C 8.67 124.77 13.57 130.30 19.47 134.64 C 20.10 133.62 20.73 132.60 21.36 131.59 C 22.09 144.84 25.70 157.84 31.29 169.85 C 30.77 170.07 29.73 170.52 29.21 170.74 C 25.13 167.86 21.75 164.14 17.84 161.04 C 13.08 157.14 9.20 151.63 3.03 149.87 C 0.77 140.37 0.77 130.61 1.00 120.92 Z" />
</g>
<g id="#399030ff">
<path fill="#399030" opacity="1.00" d=" M 3.03 149.87 C 9.20 151.63 13.08 157.14 17.84 161.04 C 21.75 164.14 25.13 167.86 29.21 170.74 C 29.73 170.52 30.77 170.07 31.29 169.85 C 43.79 196.13 67.83 216.58 95.82 224.61 C 95.76 225.08 95.63 226.02 95.57 226.49 C 103.08 233.82 111.57 240.11 118.93 247.59 C 117.39 247.97 115.86 248.35 114.33 248.72 C 110.51 248.94 106.72 248.13 102.96 247.55 C 72.27 242.08 43.85 224.65 25.28 199.58 C 14.38 184.90 6.59 167.82 3.03 149.87 Z" />
</g>
<g id="#62ac2bff">
<path fill="#62ac2b" opacity="1.00" d=" M 144.92 166.77 C 150.21 161.39 155.49 156.01 160.90 150.75 C 166.39 154.64 170.91 159.66 176.16 163.83 C 178.99 166.54 181.82 169.35 185.52 170.86 C 180.47 176.56 174.92 181.82 169.48 187.15 C 164.51 184.41 160.75 180.10 156.38 176.58 C 152.67 173.17 148.79 169.97 144.92 166.77 Z" />
</g>
<g id="#58a52cff">
<path fill="#58a52c" opacity="1.00" d=" M 125.10 186.66 C 131.60 179.92 138.31 173.40 144.92 166.77 C 148.79 169.97 152.67 173.17 156.38 176.58 C 160.75 180.10 164.51 184.41 169.48 187.15 C 162.34 194.53 154.99 201.71 147.78 209.04 C 139.99 201.83 132.71 194.08 125.10 186.66 Z" />
</g>
<g id="#6bb22aff">
<path fill="#6bb22a" opacity="1.00" d=" M 200.93 195.17 C 208.42 187.19 214.44 177.90 219.01 167.97 C 219.09 168.36 219.24 169.14 219.31 169.53 C 221.99 170.02 225.09 169.80 227.18 171.87 C 230.29 174.66 233.22 177.68 236.74 179.98 C 231.87 189.78 225.73 198.89 218.63 207.21 C 213.03 202.77 207.51 198.11 200.93 195.17 Z" />
</g>
<g id="#60aa2bff">
<path fill="#60aa2b" opacity="1.00" d=" M 186.51 208.21 C 191.78 204.41 196.47 199.89 200.93 195.17 C 207.51 198.11 213.03 202.77 218.63 207.21 C 213.30 212.92 207.80 218.56 201.47 223.17 C 196.94 217.73 190.03 214.51 186.51 208.21 Z" />
</g>
<g id="#56a42cff">
<path fill="#56a42c" opacity="1.00" d=" M 163.74 221.09 C 171.83 217.76 179.51 213.45 186.51 208.21 C 190.03 214.51 196.94 217.73 201.47 223.17 C 194.45 228.86 186.61 233.47 178.50 237.42 C 178.51 236.88 178.52 235.80 178.53 235.25 C 174.99 232.56 171.91 229.32 168.40 226.57 C 166.45 225.11 165.03 223.12 163.74 221.09 Z" />
</g>
<g id="#4c9d2eff">
<path fill="#4c9d2e" opacity="1.00" d=" M 136.08 228.09 C 145.55 226.97 154.93 224.78 163.74 221.09 C 165.03 223.12 166.45 225.11 168.40 226.57 C 171.91 229.32 174.99 232.56 178.53 235.25 C 178.52 235.80 178.51 236.88 178.50 237.42 C 169.81 241.35 160.84 244.86 151.43 246.58 C 149.88 244.50 148.22 242.48 146.14 240.91 C 141.90 237.72 138.37 233.68 133.96 230.70 C 134.87 230.32 135.79 229.95 136.71 229.58 C 136.55 229.21 136.24 228.46 136.08 228.09 Z" />
</g>
<g id="#42962fff">
<path fill="#42962f" opacity="1.00" d=" M 95.82 224.61 C 108.85 228.38 122.59 229.52 136.08 228.09 C 136.24 228.46 136.55 229.21 136.71 229.58 C 135.79 229.95 134.87 230.32 133.96 230.70 C 138.37 233.68 141.90 237.72 146.14 240.91 C 148.22 242.48 149.88 244.50 151.43 246.58 C 142.79 248.68 133.83 249.49 124.96 248.96 C 121.43 248.63 117.69 250.28 114.33 248.72 C 115.86 248.35 117.39 247.97 118.93 247.59 C 111.57 240.11 103.08 233.82 95.57 226.49 C 95.63 226.02 95.76 225.08 95.82 224.61 Z" />
</g>
</svg>

<?xml version="1.0" encoding="utf-8"?>
<!-- Generator: Adobe Illustrator 26.0.3, SVG Export Plug-In . SVG Version: 6.00 Build 0)  -->
<svg version="1.1" id="Layer_1" xmlns="http://www.w3.org/2000/svg" xmlns:xlink="http://www.w3.org/1999/xlink" x="0px" y="0px"
	 viewBox="0 0 250 250" style="enable-background:new 0 0 250 250;" xml:space="preserve">
<style type="text/css">
	.st0{fill:#FFFFFF;}
	.st1{fill:#8ECA25;}
	.st2{fill:#7DBE27;}
	.st3{fill:#6EB429;}
	.st4{fill:#66AE2A;}
	.st5{fill:#72B629;}
	.st6{fill:#5EA92B;}
	.st7{fill:#67AF2A;}
	.st8{fill:#54A22D;}
	.st9{fill:#5AA62C;}
	.st10{fill:#4B9C2E;}
	.st11{fill:#7BBD27;}
	.st12{fill:#41952F;}
	.st13{fill:#399030;}
	.st14{fill:#62AC2B;}
	.st15{fill:#58A52C;}
	.st16{fill:#6BB22A;}
	.st17{fill:#60AA2B;}
	.st18{fill:#56A42C;}
	.st19{fill:#4C9D2E;}
	.st20{fill:#42962F;}
</style>
<g id="_x23_ffffffff">
	<path class="st0" d="M75.5,34c17.5-9.3,37.6-13.7,57.3-12.2C161,24,188,38.3,205.6,60.4c11.3,13.9,18.5,30.9,21.6,48.5
		c2.9,19.9,0.3,40.7-8.1,59c-4.6,9.9-10.6,19.2-18.1,27.2c-4.5,4.7-9.1,9.2-14.4,13c-7,5.2-14.7,9.5-22.8,12.9
		c-8.8,3.7-18.2,5.9-27.7,7c-13.5,1.4-27.2,0.3-40.3-3.5c-28-8-52-28.5-64.5-54.8c-5.6-12-9.2-25-9.9-38.3
		c-0.3-8.5-0.2-17.1,1.6-25.5c1.7-9.3,4.8-18.4,9-26.9c3.4-6.9,7.6-13.3,12.4-19.3c4.1-5,8.7-9.7,13.7-13.9
		C63.4,41.4,69.3,37.4,75.5,34 M80.9,62.5c-6,5.9-12,11.8-17.8,17.9c-7.4,7.4-15,14.5-22,22.2c20.4,20.2,40.6,40.6,61,60.9
		c7.7-7.3,15.1-14.9,22.5-22.4c-12.7-12.8-25.5-25.6-38.3-38.4c0.2-0.4,0.6-1.1,0.8-1.5C93.6,95,99.9,88.4,106.3,82
		c6.1-6,12.2-12.2,18.2-18.2c-7.3-7.7-14.9-15-22.4-22.5C95,48.3,87.9,55.3,80.9,62.5 M147.4,86.9c-7.3,7.5-14.8,14.8-22.2,22.2
		c12.6,13.2,25.8,25.7,38.4,38.8c-0.9,0.9-1.8,1.9-2.7,2.9c-5.4,5.3-10.7,10.6-16,16c-6.6,6.6-13.3,13.1-19.8,19.9
		c7.6,7.4,14.9,15.2,22.7,22.4c7.2-7.3,14.6-14.5,21.7-21.9c5.4-5.3,11-10.6,16-16.3l0.3,0.1c7.6-7.8,15.3-15.3,22.9-23.1
		c-19.2-19.4-38.6-38.5-57.8-57.9C149.8,88.9,148.6,87.8,147.4,86.9z"/>
</g>
<g id="_x23_8eca25ff">
	<path class="st1" d="M109.6,1.5c7.4-1.2,14.9-0.1,22.3-0.7c18.1,0.7,35.9,5.9,51.8,14.4c26.1,13.8,46.9,37.2,57.3,64.8
		c3.5,8.5,5.6,17.4,7.2,26.5c1.3,7.8,0.6,15.7,0.8,23.5c-4.8-4.9-10.1-9.2-15.3-13.7c-2.4-2.2-4.2-5.1-6.6-7.3
		c-3.1-17.6-10.2-34.6-21.6-48.5C188,38.3,161,24,132.8,21.8c0.5-0.3,1.5-1,2-1.3c-2.6-0.6-5.4-1-7.4-2.9
		C121.6,12.1,115.3,7.2,109.6,1.5z"/>
</g>
<g id="_x23_7dbe27ff">
	<path class="st2" d="M55.9,21.5c16-10.6,34.6-17.8,53.7-19.9c5.7,5.6,12,10.6,17.8,16.1c2,1.9,4.8,2.3,7.4,2.9
		c-0.5,0.3-1.5,1-2,1.3c-19.8-1.6-39.9,2.8-57.3,12.2c-5.6-1.2-8.6-6.4-13.1-9.4C60.4,23.2,58.2,22.3,55.9,21.5z"/>
</g>
<g id="_x23_6eb429ff">
	<path class="st3" d="M55.6,21.4l0.2,0.1c2.3,0.8,4.5,1.8,6.5,3.2c4.5,3,7.5,8.2,13.1,9.4c-6.2,3.4-12.1,7.4-17.5,12
		c-2.3-2.3-4.5-5.2-8-5.9c-4.8-1-9.7-1.3-14.5-1.5C41.3,31.9,48.6,26.7,55.6,21.4z"/>
	<path class="st3" d="M147.4,86.9c1.2,1,2.5,2,3.6,3.1c19.2,19.4,38.6,38.5,57.8,57.9c-7.6,7.8-15.4,15.3-22.9,23.1l-0.3-0.1
		c-3.7-1.5-6.5-4.3-9.4-7c-5.2-4.2-9.8-9.2-15.3-13.1c0.9-1,1.8-1.9,2.7-2.9c-12.6-13.1-25.8-25.6-38.4-38.8
		C132.5,101.7,140,94.3,147.4,86.9z"/>
</g>
<g id="_x23_66ae2aff">
	<path class="st4" d="M25.3,50.8c2.8-4.5,6.3-8.6,10.2-12.2c4.9,0.2,9.8,0.5,14.5,1.5c3.4,0.7,5.7,3.5,8,5.9
		c-5,4.2-9.6,8.9-13.7,13.9c-3.9-1.2-6.2-4.6-9.2-7.1C32,51.5,28.5,51.9,25.3,50.8z"/>
</g>
<g id="_x23_72b629ff">
	<path class="st5" d="M80.9,62.5c7-7.2,14.1-14.2,21.2-21.2c7.5,7.5,15.1,14.9,22.4,22.5c-6.1,6.1-12.1,12.2-18.2,18.2
		c-7.4-4.9-13.4-11.6-20.4-17C84.3,64,82.6,63.3,80.9,62.5z"/>
</g>
<g id="_x23_5ea92bff">
	<path class="st6" d="M13.6,69.3c3.2-6.5,7.1-12.7,11.3-18.6l0.4,0.1c3.2,1.1,6.7,0.8,9.8,2c3,2.5,5.3,5.8,9.2,7.1
		c-4.8,6-9,12.4-12.4,19.3c-3.6-2-6.7-4.7-9.9-7.3C19.4,70.6,16.4,70.3,13.6,69.3z"/>
</g>
<g id="_x23_67af2aff">
	<path class="st7" d="M63,80.4c5.8-6.1,11.9-12,17.8-17.9c1.7,0.8,3.4,1.5,5,2.5c7,5.4,13,12.1,20.4,17c-6.4,6.4-12.7,13-19.3,19.2
		C79.1,94.2,71.2,87.1,63,80.4z"/>
</g>
<g id="_x23_54a22dff">
	<path class="st8" d="M5.2,91.9c1.7-7.9,5-15.4,8.5-22.6c2.8,0.9,5.8,1.3,8.4,2.6c3.1,2.6,6.2,5.3,9.9,7.3c-4.2,8.5-7.3,17.6-9,26.9
		c-3.1-4.6-7.9-7.4-11.8-11.3c-1.6-1.8-4-1.5-6.1-1.4C5,93,5.1,92.3,5.2,91.9z"/>
</g>
<g id="_x23_5aa62cff">
	<path class="st9" d="M41,102.6c7-7.7,14.6-14.9,22-22.2c8.1,6.8,16.1,13.8,24,20.8c-0.2,0.4-0.6,1.1-0.8,1.5
		c12.8,12.8,25.6,25.6,38.3,38.4c-7.4,7.6-14.8,15.1-22.5,22.4C81.7,143.2,61.5,122.8,41,102.6z"/>
</g>
<g id="_x23_4b9c2eff">
	<path class="st10" d="M1,120.9c-0.2-9.8,1.2-19.7,4.2-29C5.1,92.3,5,93,5,93.4c2.1-0.1,4.6-0.4,6.1,1.4c3.9,3.8,8.7,6.7,11.8,11.3
		c-1.8,8.4-1.9,17-1.6,25.5c-0.6,1-1.3,2-1.9,3.1c-5.9-4.3-10.8-9.9-16.7-14.2C2.3,120.6,1.4,120.8,1,120.9z"/>
</g>
<g id="_x23_7bbd27ff">
	<path class="st11" d="M227.1,109c2.4,2.3,4.2,5.1,6.6,7.3c5.1,4.5,10.5,8.8,15.3,13.7c0.5,2.8,0,5.6-0.3,8.4
		c-1.6,14.4-5.7,28.5-12,41.6c-3.5-2.3-6.5-5.3-9.6-8.1c-2.1-2.1-5.2-1.8-7.9-2.3c-0.1-0.4-0.2-1.2-0.3-1.6
		C227.5,149.7,230.1,128.9,227.1,109z"/>
</g>
<g id="_x23_41952fff">
	<path class="st12" d="M1,120.9c0.4-0.1,1.3-0.4,1.8-0.5c5.9,4.3,10.8,9.9,16.7,14.2c0.6-1,1.3-2,1.9-3.1
		c0.7,13.2,4.3,26.2,9.9,38.3c-0.5,0.2-1.6,0.7-2.1,0.9c-4.1-2.9-7.5-6.6-11.4-9.7c-4.8-3.9-8.6-9.4-14.8-11.2
		C0.8,140.4,0.8,130.6,1,120.9z"/>
</g>
<g id="_x23_399030ff">
	<path class="st13" d="M3,149.9c6.2,1.8,10.1,7.3,14.8,11.2c3.9,3.1,7.3,6.8,11.4,9.7c0.5-0.2,1.6-0.7,2.1-0.9
		c12.5,26.3,36.5,46.7,64.5,54.8c-0.1,0.5-0.2,1.4-0.2,1.9c7.5,7.3,16,13.6,23.4,21.1c-1.5,0.4-3.1,0.8-4.6,1.1
		c-3.8,0.2-7.6-0.6-11.4-1.2c-30.7-5.5-59.1-22.9-77.7-48C14.4,184.9,6.6,167.8,3,149.9z"/>
</g>
<g id="_x23_62ac2bff">
	<path class="st14" d="M144.9,166.8c5.3-5.4,10.6-10.8,16-16c5.5,3.9,10,8.9,15.3,13.1c2.8,2.7,5.7,5.5,9.4,7
		c-5.1,5.7-10.6,11-16,16.3c-5-2.7-8.7-7-13.1-10.6C152.7,173.2,148.8,170,144.9,166.8z"/>
</g>
<g id="_x23_58a52cff">
	<path class="st15" d="M125.1,186.7c6.5-6.7,13.2-13.3,19.8-19.9c3.9,3.2,7.8,6.4,11.5,9.8c4.4,3.5,8.1,7.8,13.1,10.6
		c-7.1,7.4-14.5,14.6-21.7,21.9C140,201.8,132.7,194.1,125.1,186.7z"/>
</g>
<g id="_x23_6bb22aff">
	<path class="st16" d="M200.9,195.2c7.5-8,13.5-17.3,18.1-27.2c0.1,0.4,0.2,1.2,0.3,1.6c2.7,0.5,5.8,0.3,7.9,2.3
		c3.1,2.8,6,5.8,9.6,8.1c-4.9,9.8-11,18.9-18.1,27.2C213,202.8,207.5,198.1,200.9,195.2z"/>
</g>
<g id="_x23_60aa2bff">
	<path class="st17" d="M186.5,208.2c5.3-3.8,10-8.3,14.4-13c6.6,2.9,12.1,7.6,17.7,12c-5.3,5.7-10.8,11.3-17.2,16
		C196.9,217.7,190,214.5,186.5,208.2z"/>
</g>
<g id="_x23_56a42cff">
	<path class="st18" d="M163.7,221.1c8.1-3.3,15.8-7.6,22.8-12.9c3.5,6.3,10.4,9.5,15,15c-7,5.7-14.9,10.3-23,14.2c0-0.5,0-1.6,0-2.2
		c-3.5-2.7-6.6-5.9-10.1-8.7C166.4,225.1,165,223.1,163.7,221.1z"/>
</g>
<g id="_x23_4c9d2eff">
	<path class="st19" d="M136.1,228.1c9.5-1.1,18.8-3.3,27.7-7c1.3,2,2.7,4,4.7,5.5c3.5,2.8,6.6,6,10.1,8.7c0,0.6,0,1.6,0,2.2
		c-8.7,3.9-17.7,7.4-27.1,9.2c-1.5-2.1-3.2-4.1-5.3-5.7c-4.2-3.2-7.8-7.2-12.2-10.2c0.9-0.4,1.8-0.8,2.8-1.1
		C136.6,229.2,136.2,228.5,136.1,228.1z"/>
</g>
<g id="_x23_42962fff">
	<path class="st20" d="M95.8,224.6c13,3.8,26.8,4.9,40.3,3.5c0.2,0.4,0.5,1.1,0.6,1.5c-0.9,0.4-1.8,0.7-2.8,1.1
		c4.4,3,7.9,7,12.2,10.2c2.1,1.6,3.7,3.6,5.3,5.7c-8.6,2.1-17.6,2.9-26.5,2.4c-3.5-0.3-7.3,1.3-10.6-0.2c1.5-0.4,3.1-0.8,4.6-1.1
		c-7.4-7.5-15.8-13.8-23.4-21.1C95.6,226,95.8,225.1,95.8,224.6z"/>
</g>
</svg>
